svg/power_socket_uk.svg

<?xml version="1.0" encoding="UTF-8"?><!DOCTYPE svg PUBLIC "-//W3C//DTD SVG 1.1//EN" "http://www.w3.org/Graphics/SVG/1.1/DTD/svg11.dtd"><svg xmlns="http://www.w3.org/2000/svg" xmlns:xlink="http://www.w3.org/1999/xlink" version="1.1" id="mdi-power-socket-uk" width="24" height="24" viewBox="0 0 24 24"><path d="M4 2A2 2 0 0 0 2 4V20A2 2 0 0 0 4 22H20A2 2 0 0 0 22 20V4A2 2 0 0 0 20 2H4M4 4H20V20H4V4M11 7V11H13V7H11M6 14.75V17H9.5V14.75H6M14.5 14.75V17H18V14.75H14.5Z" /></svg>

<svg xmlns="http://www.w3.org/2000/svg" viewBox="0 0 24 24"><path d="M4 2a2 2 0 0 0-2 2v16a2 2 0 0 0 2 2h16a2 2 0 0 0 2-2V4a2 2 0 0 0-2-2zm0 2h16v16H4zm7 3v4h2V7zm-5 7.75V17h3.5v-2.25zm8.5 0V17H18v-2.25z"/></svg>
